X:706
T: Little Katie Taylor
Z: Piano Box Version by Martin Fleischmann
H: Created 2015-04-29 /  Last Modified 2015-05-05
R: reel
M: 4/4
L: 1/8
K: Dmaj
|: D2 FA GEAG | FDFA d2 ef | geag fddc | AGGG EzAF |
D2 FA GEAG | FDFA d2 ef | gbag fdcd |[1 eddc dBAF :|[2 eddc d3 e ||
f3a g2 ag | fdaf g2 ag | fd=cA G2 FG | ABcA dcAe |
 fdaf g2 ag | fdaf g2 ag | fd=cA G2 FG | ABcA d3e | 
f3a g2 ag | fdaf g2 ag | fd=cA G2 E/F/G | ABcA dcAF | 
D2 FA GEAG | FDFA d2 ef | gbag fdcd | eddc dBAF|

